X:1
T:Mortals learn your Lives to measure
T:Now, that the Spring hath fill'd our Veins
T:A Catch, a 3 Voc. by Mr. John Hilton
%%score [ 1 2 3 ]
L:1/8
Q:1/4=80
M:2/2
K:F
V:1 treble nm="I"
V:2 treble nm="II"
V:3 treble nm="III"
V:1
 D2 D E F3 G | A3 B ^c2 A2 | d2 D2 F3 G | A6 A2 | c3 c c3 c | c3 d e2 (d^c) | f2 (ed) ^c3 d | d8 :| %8
w: Now, that the Spring hath|fill'd our Veins, with|kind and ac- tive|fire, and|made green Liv- 'ries|for the Plains, and _|ev- 'ry _ Grove a|Choir;|
V:2
 A2 A G F3 E | D E F G A3 A | F D d4 d2 | ^c6 =c2 | A3 G F3 F | E3 D ^C3 C | (DE) (FG) A2 A,2 | %7
w: Sing we this Song with|mirth, and mer- ry Glee, and|Bacc- hus crown the|Bowl, and|here's to thee, and|thou to me, and|ev- * 'ry _ thirs- ty|
 D8 :| %8
w: Soul.|
V:3
 F2 F E D3 D | F2 D2 A,3 A, | B,3 B, B,2 B,2 | A,6 F2 | F2 F G A A2 A | G2 G F G G2 G | %6
w: Shear Sheep that have them|cry we still, but|see that none es-|cape, to|take off the Sher- ry, that|makes us so mer- ry, and|
 d2 ^c B A3 G | ^F8 :| %8
w: plump as the lust- y|Grape.|

